X: 32794
T: Poor But Happy At 53
R: reel
M: 4/4
K: Eminor
|:[B,/D/]|E>FG>A B>E^D>E|(3BcB A>c B<E (3GFE|D>EF>G (3ABA D>F|(3ABA ^G>B A<=GF>D|
E2 (3FGA B>ee>^d|e>dB>^A (3BcB G>=A|B<EG>E A<DF>D|G>ED<F E2- E3/2:|
|:e/|e>dB>^A (3BcB e>f|g>fe>d B>A (3Bcd|e>^de>f g<ba>f|g<fe>^d e2- e>f|
e>BB>^A B>E (3FG=A|B>GA>F G<FE>G|B2 G>B (3ABA F>A|G<EF<D E2- E3/2:|

